X:1
T:The Echoed Song
T:The Echoed Song
T:Asa Hull
T:Eliza M. Sherman, 1885
T:Public Domain Courtesy of the Cyber Hymnal™
T:Public Domain Courtesy of the Cyber Hymnal™
C:Asa Hull
Z:Public Domain
Z:Courtesy of the Cyber Hymnal™
%%score ( 1 2 ) ( 3 4 )
L:1/8
Q:1/4=107
M:4/4
K:A
V:1 treble 
V:2 treble 
V:3 bass 
V:4 bass 
V:1
 [Ec]2 [DB]2 [CA]2 [EG]2 | ([DF]>[EG]) ([FA][DF]) [DF]2 [CE]2 | [CA]2 [EB]2 [Ec]2 [Ec]2 | %3
w: 1.~Soft- ly down the|lapse * of * ag- es,|Comes the e- cho|
w: 2.~Glo- ry in the|high- * est, * glo- ry!|Christ the Lord is|
w: 3.~Ah! the e- choes|from * the * mount- ain!|And on moon- lit|
w: 4.~We can bring no|East- * ern * trea- sure,|With their in- cense|
 (F>G) (AB) [^Ec]4 |"^Echo" [Ec]>[DB] [CA][DB] [Ec]2 [Fd]2 | [Ec]4 [Ec]4 | %6
w: soft * and * low;|(Glo- ry in the high- est,|glo- ry!)|
w: born * to- * day!|(Glo- ry in the high- est,|glo- ry!)|
w: Gal- * i- * lee!|(Glo- ry in the high- est,|glo- ry!)|
w: rare * and * sweet!|(Glo- ry in the high- est,|glo- ry!)|
 [Ec]2 [DB]2 [CA]2 [EG]2 | ([DF]>[EG]) ([FA][DF]) [DF]2 [CE]2 | [CA]2 [DB]2 [Ec]2 [Fd]2 | %9
w: Of the song in|Beth- * l’em * car- oled,|Eight- een hun- dred|
w: Chime, ye Christ- mas|bells, * the * sto- ry,|Let the child- ren|
w: Ne- ver woke to|sweet- * er * mu- sic|Than that Christ- mas|
w: But our hearts, with|love * o’er- * flow- ing,|We will lay at|
 [Ec]2 [DB]2 [CA]4 |"^Echo" [Ec]>[DB] [CA][DB] [Ec]2 [Ed]2 | [Ec]4 [Ec]4 || %12
w: years a- go!|(Glo- ry in the high- est,|glo- ry!)|
w: join the lay!|(Glo- ry in the high- est,|glo- ry!)|
w: mel- o- dy!|(Glo- ry in the high- est,|glo- ry!)|
w: Je- sus’ feet.|(Glo- ry in the high- est,|glo- ry!)|
"^Refrain" [Ae]>[Ad] [Ac][Ad] [Ae]2 [Af]2 | [Ae]4 [Ae]2 z2 | [Ec]>[DB] [CA][DB] [Ec]2 [Fd]2 | %15
w: |||
w: Glo- ry in the high- est,|glo- ry!|Glo- ry in the high- est,|
w: |||
w: |||
 [Ec]4 [Ec]2 z2 | [EB]>[EA] [EG][EA] [EB]2 [Ac]2 | [GB]4 [Ge]2 z2 | [Ed]4 [Ec]2 z2 | %19
w: ||||
w: glo- ry!|Glo- ry in the high- est,|glo- ry!|Glo- ry!|
w: ||||
w: ||||
 [DB]4 [CA]2 z2 | [Ec]2 [DB]2 [CA]2 [EG]2 | ([DF]>[EG]) ([FA][DF]) [DF]2 [CE]2 | %22
w: |||
w: glo- ry!|Sweet- er car- ol|ne’er * was * sound- ed,|
w: |||
w: |||
 [CA]2 [EB]2 [Ec]2 [Fd]2 | [Ec]2 [DB]2 [CA]4 |"^Echo" [Ec]>[DB] [CA][DB] [Ec]2 [Fd]2 | %25
w: |||
w: Than in Beth- le-|hem was sung.|(Glo- ry in the high- est,|
w: |||
w: |||
 [Ec]4 [Ec]6 |] %26
w: |
w: glo- ry!)|
w: |
w: |
V:2
 x8 | x8 | x8 | D2 F2 x4 | x8 | x8 | x8 | x8 | x8 | x8 | x8 | x8 || x8 | x8 | x8 | x8 | x8 | x8 | %18
 x8 | x8 | x8 | x8 | x8 | x8 | x8 | x10 |] %26
V:3
 [A,,A,]2 [A,,A,]2 [A,,A,]2 [C,A,]2 | [D,A,]2 [D,A,]2 [A,,A,]2 [A,,A,]2 | %2
 [F,A,]2 [E,G,]2 [A,,A,]2 [A,,A,]2 | [D,A,]2 [D,F,]2 [C,G,]4 | %4
 [A,,A,]>[A,,A,] [A,,A,][A,,A,] [A,,A,]2 [A,,A,]2 | [A,,A,]4 [A,,A,]4 | %6
 [A,,A,]2 [A,,A,]2 [A,,A,]2 [C,A,]2 | [D,A,]2 [D,A,]2 [A,,A,]2 [A,,A,]2 | %8
 [F,A,]2 [E,G,]2 A,2 [D,A,]2 | [E,A,]2 [E,G,]2 [A,,A,]4 | %10
 [A,,A,]>[A,,A,] [A,,A,][A,,A,] [A,,A,]2 [A,,A,]2 | [A,,A,]4 [A,,A,]4 || %12
 [A,C]>[A,B,] A,[A,B,] [A,C]2 [A,D]2 | [A,C]4 [A,C]2 z2 | %14
 [A,,A,]>[A,,A,] [A,,A,][A,,A,] [A,,A,]2 [A,,A,]2 | [A,,A,]4 [A,,A,]2 z2 | %16
 [E,D]>[E,C] [E,B,][E,C] [E,D]2 [E,E]2 | [E,E]4 [E,B,]2 z2 | B,4 A,2 z2 | [E,G,]4 [A,,A,]2 z2 | %20
 [A,,A,]2 [A,,A,]2 [A,,A,]2 [C,A,]2 | [D,A,]2 [D,A,]2 [A,,A,]2 [A,,A,]2 | %22
 [F,A,]2 [E,G,]2 A,2 [D,A,]2 | [E,A,]2 [E,G,]2 [A,,A,]4 | %24
 [A,,A,]>[A,,A,] [A,,A,][A,,A,] [A,,A,]2 [A,,A,]2 | [A,,A,]4 [A,,A,]6 |] %26
V:4
 x8 | x8 | x8 | x8 | x8 | x8 | x8 | x8 | x4 A,2 x2 | x8 | x8 | x8 || x2 A, x5 | x8 | x8 | x8 | x8 | %17
 x8 | (F,2 G,2) A,2 x2 | x8 | x8 | x8 | x4 A,2 x2 | x8 | x8 | x10 |] %26

